X:12
T:Seigneur Jsus, Tu es vivant - J16
C:D. Ombrie
M:6/8
L:1/8
K:G
D|G2G D3|EGA B3|BBA GED|G3 G3||BBB A2A|G3 E2E|
GEG A3|BBB A2A|G2G EEE|D3 B2B|GEG A2||
